packages/web/assets/colors/Artifice.svg

<?xml version="1.0" encoding="UTF-8" standalone="no"?>
<svg
   xmlns:dc="http://purl.org/dc/elements/1.1/"
   xmlns:cc="http://creativecommons.org/ns#"
   xmlns:rdf="http://www.w3.org/1999/02/22-rdf-syntax-ns#"
   xmlns:svg="http://www.w3.org/2000/svg"
   xmlns="http://www.w3.org/2000/svg"
   xmlns:sodipodi="http://sodipodi.sourceforge.net/DTD/sodipodi-0.dtd"
   xmlns:inkscape="http://www.inkscape.org/namespaces/inkscape"
   viewBox="0 0 100 100"
   version="1.1"
   id="svg4"
   sodipodi:docname="Artifice.svg"
   inkscape:version="1.0.1 (0767f8302a, 2020-10-17)">
  <metadata
     id="metadata10">
    <rdf:RDF>
      <cc:Work
         rdf:about="">
        <dc:format>image/svg+xml</dc:format>
        <dc:type
           rdf:resource="http://purl.org/dc/dcmitype/StillImage" />
        <dc:title></dc:title>
      </cc:Work>
    </rdf:RDF>
  </metadata>
  <defs
     id="defs8">
    <linearGradient
       id="linearGradient1005"
       x2="1"
       gradientTransform="matrix(0,102.34101,-102.34101,0,49.911175,-1.6369022)"
       gradientUnits="userSpaceOnUse">
      <stop
         stop-color="#f15236"
         offset="0"
         id="stop974" />
      <stop
         stop-color="#94136e"
         offset=".91424"
         id="stop976" />
      <stop
         stop-color="#94136e"
         offset="1"
         id="stop978" />
    </linearGradient>
    <filter
       style="color-interpolation-filters:sRGB;"
       inkscape:label="Drop Shadow"
       id="filter1015">
      <feFlood
         flood-opacity="0.803922"
         flood-color="rgb(72,49,7)"
         result="flood"
         id="feFlood1005" />
      <feComposite
         in="flood"
         in2="SourceGraphic"
         operator="in"
         result="composite1"
         id="feComposite1007" />
      <feGaussianBlur
         in="composite1"
         stdDeviation="2"
         result="blur"
         id="feGaussianBlur1009" />
      <feOffset
         dx="0"
         dy="2.3"
         result="offset"
         id="feOffset1011" />
      <feComposite
         in="SourceGraphic"
         in2="offset"
         operator="over"
         result="fbSourceGraphic"
         id="feComposite1013" />
      <feColorMatrix
         result="fbSourceGraphicAlpha"
         in="fbSourceGraphic"
         values="0 0 0 -1 0 0 0 0 -1 0 0 0 0 -1 0 0 0 0 1 0"
         id="feColorMatrix1017" />
      <feFlood
         id="feFlood1019"
         flood-opacity="0.803922"
         flood-color="rgb(72,49,7)"
         result="flood"
         in="fbSourceGraphic" />
      <feComposite
         in2="fbSourceGraphic"
         id="feComposite1021"
         in="flood"
         operator="in"
         result="composite1" />
      <feGaussianBlur
         id="feGaussianBlur1023"
         in="composite1"
         stdDeviation="2"
         result="blur" />
      <feOffset
         id="feOffset1025"
         dx="0"
         dy="2.3"
         result="offset" />
      <feComposite
         in2="offset"
         id="feComposite1027"
         in="fbSourceGraphic"
         operator="over"
         result="fbSourceGraphic" />
      <feColorMatrix
         result="fbSourceGraphicAlpha"
         in="fbSourceGraphic"
         values="0 0 0 -1 0 0 0 0 -1 0 0 0 0 -1 0 0 0 0 1 0"
         id="feColorMatrix1053" />
      <feFlood
         id="feFlood1055"
         flood-opacity="0.803922"
         flood-color="rgb(72,49,7)"
         result="flood"
         in="fbSourceGraphic" />
      <feComposite
         in2="fbSourceGraphic"
         id="feComposite1057"
         in="flood"
         operator="in"
         result="composite1" />
      <feGaussianBlur
         id="feGaussianBlur1059"
         in="composite1"
         stdDeviation="2"
         result="blur" />
      <feOffset
         id="feOffset1061"
         dx="0"
         dy="2.3"
         result="offset" />
      <feComposite
         in2="offset"
         id="feComposite1063"
         in="fbSourceGraphic"
         operator="over"
         result="composite2" />
    </filter>
    <linearGradient
       id="linearGradient1387"
       x2="1"
       gradientTransform="matrix(0,128.92531,-128.92531,0,47.037706,-10.358106)"
       gradientUnits="userSpaceOnUse">
      <stop
         stop-color="#9cce62"
         offset="0"
         id="stop1230" />
      <stop
         stop-color="#009b5b"
         offset=".98876"
         id="stop1232" />
      <stop
         stop-color="#009b5b"
         offset="1"
         id="stop1234" />
    </linearGradient>
    <filter
       style="color-interpolation-filters:sRGB;"
       inkscape:label="Drop Shadow"
       id="filter1299">
      <feFlood
         flood-opacity="0.803922"
         flood-color="rgb(72,49,7)"
         result="flood"
         id="feFlood1289" />
      <feComposite
         in="flood"
         in2="SourceGraphic"
         operator="in"
         result="composite1"
         id="feComposite1291" />
      <feGaussianBlur
         in="composite1"
         stdDeviation="2"
         result="blur"
         id="feGaussianBlur1293" />
      <feOffset
         dx="0"
         dy="2.3"
         result="offset"
         id="feOffset1295" />
      <feComposite
         in="SourceGraphic"
         in2="offset"
         operator="over"
         result="fbSourceGraphic"
         id="feComposite1297" />
      <feColorMatrix
         result="fbSourceGraphicAlpha"
         in="fbSourceGraphic"
         values="0 0 0 -1 0 0 0 0 -1 0 0 0 0 -1 0 0 0 0 1 0"
         id="feColorMatrix1301" />
      <feFlood
         id="feFlood1303"
         flood-opacity="0.803922"
         flood-color="rgb(72,49,7)"
         result="flood"
         in="fbSourceGraphic" />
      <feComposite
         in2="fbSourceGraphic"
         id="feComposite1305"
         in="flood"
         operator="in"
         result="composite1" />
      <feGaussianBlur
         id="feGaussianBlur1307"
         in="composite1"
         stdDeviation="2"
         result="blur" />
      <feOffset
         id="feOffset1309"
         dx="0"
         dy="2.3"
         result="offset" />
      <feComposite
         in2="offset"
         id="feComposite1311"
         in="fbSourceGraphic"
         operator="over"
         result="composite2" />
    </filter>
    <linearGradient
       id="linearGradient1365"
       x2="1"
       gradientTransform="matrix(0,-112.09574,112.09574,0,48.729313,96.504581)"
       gradientUnits="userSpaceOnUse">
      <stop
         stop-color="#020121"
         offset="0"
         id="stop1414" />
      <stop
         stop-color="#2f3e57"
         offset=".69367"
         id="stop1416" />
      <stop
         stop-color="#2f3e57"
         offset="1"
         id="stop1418" />
    </linearGradient>
    <filter
       style="color-interpolation-filters:sRGB;"
       inkscape:label="Drop Shadow"
       id="filter1453">
      <feFlood
         flood-opacity="0.803922"
         flood-color="rgb(72,49,7)"
         result="flood"
         id="feFlood1443" />
      <feComposite
         in="flood"
         in2="SourceGraphic"
         operator="in"
         result="composite1"
         id="feComposite1445" />
      <feGaussianBlur
         in="composite1"
         stdDeviation="2"
         result="blur"
         id="feGaussianBlur1447" />
      <feOffset
         dx="0"
         dy="2.3"
         result="offset"
         id="feOffset1449" />
      <feComposite
         in="SourceGraphic"
         in2="offset"
         operator="over"
         result="fbSourceGraphic"
         id="feComposite1451" />
      <feColorMatrix
         result="fbSourceGraphicAlpha"
         in="fbSourceGraphic"
         values="0 0 0 -1 0 0 0 0 -1 0 0 0 0 -1 0 0 0 0 1 0"
         id="feColorMatrix1455" />
      <feFlood
         id="feFlood1457"
         flood-opacity="0.803922"
         flood-color="rgb(72,49,7)"
         result="flood"
         in="fbSourceGraphic" />
      <feComposite
         in2="fbSourceGraphic"
         id="feComposite1459"
         in="flood"
         operator="in"
         result="composite1" />
      <feGaussianBlur
         id="feGaussianBlur1461"
         in="composite1"
         stdDeviation="2"
         result="blur" />
      <feOffset
         id="feOffset1463"
         dx="0"
         dy="2.3"
         result="offset" />
      <feComposite
         in2="offset"
         id="feComposite1465"
         in="fbSourceGraphic"
         operator="over"
         result="composite2" />
    </filter>
    <linearGradient
       id="linearGradient1049"
       x2="1"
       gradientTransform="matrix(0,130.65678,-130.65678,0,47.21893,-7.9513882)"
       gradientUnits="userSpaceOnUse">
      <stop
         stop-color="#a4aec4"
         offset="0"
         id="stop1611" />
      <stop
         stop-color="#dca8a9"
         offset="1"
         id="stop1613" />
    </linearGradient>
    <filter
       style="color-interpolation-filters:sRGB;"
       inkscape:label="Drop Shadow"
       id="filter1647">
      <feFlood
         flood-opacity="0.803922"
         flood-color="rgb(72,49,7)"
         result="flood"
         id="feFlood1637" />
      <feComposite
         in="flood"
         in2="SourceGraphic"
         operator="in"
         result="composite1"
         id="feComposite1639" />
      <feGaussianBlur
         in="composite1"
         stdDeviation="2"
         result="blur"
         id="feGaussianBlur1641" />
      <feOffset
         dx="0"
         dy="2.3"
         result="offset"
         id="feOffset1643" />
      <feComposite
         in="SourceGraphic"
         in2="offset"
         operator="over"
         result="fbSourceGraphic"
         id="feComposite1645" />
      <feColorMatrix
         result="fbSourceGraphicAlpha"
         in="fbSourceGraphic"
         values="0 0 0 -1 0 0 0 0 -1 0 0 0 0 -1 0 0 0 0 1 0"
         id="feColorMatrix1649" />
      <feFlood
         id="feFlood1651"
         flood-opacity="0.803922"
         flood-color="rgb(72,49,7)"
         result="flood"
         in="fbSourceGraphic" />
      <feComposite
         in2="fbSourceGraphic"
         id="feComposite1653"
         in="flood"
         operator="in"
         result="composite1" />
      <feGaussianBlur
         id="feGaussianBlur1655"
         in="composite1"
         stdDeviation="2"
         result="blur" />
      <feOffset
         id="feOffset1657"
         dx="0"
         dy="2.3"
         result="offset" />
      <feComposite
         in2="offset"
         id="feComposite1659"
         in="fbSourceGraphic"
         operator="over"
         result="composite2" />
    </filter>
  </defs>
  <sodipodi:namedview
     pagecolor="#ffffff"
     bordercolor="#666666"
     borderopacity="1"
     objecttolerance="10"
     gridtolerance="10"
     guidetolerance="10"
     inkscape:pageopacity="0"
     inkscape:pageshadow="2"
     inkscape:window-width="1507"
     inkscape:window-height="1009"
     id="namedview6"
     showgrid="false"
     inkscape:zoom="2.9234674"
     inkscape:cx="23.509528"
     inkscape:cy="59.713036"
     inkscape:window-x="1109"
     inkscape:window-y="223"
     inkscape:window-maximized="0"
     inkscape:current-layer="g1168" />
  <g
     id="g1168"
     transform="matrix(0.63556605,0,0,0.63556605,19.86987,15.546691)">
    <circle
       style="fill:#f508fa;fill-opacity:1;fill-rule:evenodd;stroke:#2d3904;stroke-width:4.3;stroke-miterlimit:4;stroke-dasharray:none;stroke-opacity:0.64219773"
       id="path1003"
       cx="47.860718"
       cy="54.606998"
       r="76.036369" />
    <path
       d="M 33.686045,-6.0718176 C 28.350758,-4.5144666 23.49879,-2.0602839 20.061867,2.5634489 19.812153,2.8964016 19.318096,3.1112136 18.896536,3.2400949 12.551654,5.1518862 6.5182486,7.705412 1.1373148,11.649818 c -0.30878783,0.225546 -0.69544366,0.365168 -1.06330176,0.475257 -3.42886364,1.020339 -6.85773354,2.037988 -10.29197204,3.02879 -0.749141,0.214805 -1.181444,0.582665 -1.436528,1.374767 -2.564267,7.921036 -3.979313,16.038079 -4.223657,24.351138 -0.185268,6.210625 0.335636,12.380973 1.560041,18.468085 0.118146,0.588038 0.24166,1.173392 0.373231,1.756056 1.111625,5.002336 2.663617,9.910689 4.6666954,14.625717 1.8876271,4.715029 4.4680013,9.236733 7.298093,13.44427 1.16801793,1.737257 2.40316324,3.434248 3.7000625,5.080214 2.0836349,2.650186 4.3310625,5.174164 6.723479,7.547778 3.6839511,3.64905 7.7303911,6.92755 12.0587641,9.77912 5.30038,3.49063 10.866585,6.48182 16.980548,8.33185 2.999252,0.91025 6.003876,1.82049 9.016553,2.69584 0.429615,0.12351 0.937098,0.12619 1.372084,0.0269 12.969015,-2.89722 24.461226,-8.72926 34.48201,-17.45045 4.360588,-3.79673 8.275463,-8.017676 11.733859,-12.652152 4.92982,-6.605333 8.772184,-13.80676 11.500244,-21.580117 3.64367,-10.383263 5.21445,-21.077999 4.63447,-32.092267 -0.40276,-7.663261 -1.80975,-15.117084 -4.14041,-22.415176 -0.20675,-0.649798 -0.53165,-1.023022 -1.17875,-1.216348 -1.98967,-0.59343 -3.97932,-1.181461 -5.944814,-1.844683 C 96.613953,12.589621 94.009414,12.501012 92.003647,10.771812 91.380699,10.237478 90.674526,9.7917523 89.968342,9.3782476 85.430536,6.7414813 80.618842,4.7437712 75.592342,3.2401168 75.055318,3.0789737 74.561263,2.646672 74.145075,2.2412187 73.011962,1.1537582 72.026534,-0.10287069 70.812871,-1.0802476 66.889945,-4.2567162 62.263519,-5.9617524 57.387388,-6.9149585 53.912872,-7.5916047 50.441044,-7.9514064 46.979956,-7.9514064 c -4.459945,0 -8.901095,0.5960891 -13.293911,1.8795706"
       fill="url(#linearGradient1049)"
       id="path1620"
       style="fill:url(#linearGradient1049);stroke-width:2.6851;filter:url(#filter1647)"
       transform="matrix(0.97280471,0,0,0.97280471,1.3766329,2.119416)" />
  </g>
</svg>

<?xml version="1.0"?>
<svg xmlns="http://www.w3.org/2000/svg" viewBox="0 0 100 100">
  <defs>
    <linearGradient id="a" x2="1" gradientTransform="rotate(90 27.585 19.634) scale(130.65678)" gradientUnits="userSpaceOnUse">
      <stop stop-color="#a4aec4" offset="0"/>
      <stop stop-color="#dca8a9" offset="1"/>
    </linearGradient>
  </defs>
  <g transform="matrix(.63557 0 0 .63557 19.87 15.547)">
    <circle style="fill:#f508fa;fill-opacity:1;fill-rule:evenodd;stroke:#2d3904;stroke-width:4.3;stroke-miterlimit:4;stroke-dasharray:none;stroke-opacity:.64219773" cx="47.861" cy="54.607" r="76.036"/>
    <path d="M33.686-6.072C28.351-4.514 23.499-2.06 20.062 2.563c-.25.333-.744.548-1.165.677-6.345 1.912-12.379 4.465-17.76 8.41-.308.225-.695.365-1.063.475-3.429 1.02-6.858 2.038-10.292 3.029-.75.215-1.181.583-1.436 1.375a86.98 86.98 0 0 0-4.224 24.35 81.181 81.181 0 0 0 1.933 20.225A84.057 84.057 0 0 0-9.278 75.73c1.887 4.715 4.468 9.236 7.298 13.444a83.4 83.4 0 0 0 3.7 5.08 82.238 82.238 0 0 0 6.723 7.548 78.558 78.558 0 0 0 12.06 9.779c5.3 3.49 10.866 6.482 16.98 8.332 2.999.91 6.004 1.82 9.016 2.696.43.123.937.126 1.372.027 12.97-2.898 24.462-8.73 34.482-17.45a80.848 80.848 0 0 0 11.734-12.653 80.438 80.438 0 0 0 11.5-21.58c3.644-10.383 5.215-21.078 4.635-32.092-.403-7.664-1.81-15.117-4.14-22.416-.207-.65-.532-1.023-1.18-1.216-1.989-.593-3.978-1.181-5.944-1.845-2.344-.794-4.949-.883-6.954-2.612-.623-.535-1.33-.98-2.036-1.394-4.537-2.637-9.35-4.634-14.376-6.138-.537-.161-1.03-.593-1.447-.999-1.133-1.087-2.118-2.344-3.332-3.321-3.923-3.177-8.55-4.882-13.426-5.835-3.474-.677-6.946-1.036-10.407-1.036-4.46 0-8.901.596-13.294 1.88" fill="url(#a)" style="fill:url(#a);stroke-width:2.6851;filter:url(#filter1647)" transform="matrix(.9728 0 0 .9728 1.377 2.12)"/>
  </g>
</svg>
